hornpipes/bobbycaseys.htmlhornpipes/bobbycaseys.htmlhornpipes/bobbycaseys.htmlhornpipes/bobbycaseys.htmlhornpipes/bobbycaseys.htmlhornpipes/bobbycaseys.htmlhornpipes/bobbycaseys.htmlhornpipes/bobbycaseys.htmlFrom <I>Damp in the Attic: I Was...Flyin' It</I>
hornpipes/bobbycaseys.htmlhornpipes/bobbycaseys.html<PRE>T:John Dwyer's
T:John Dwyer's
M:6/8
L:1/8
R:jig
D:Damp in the Attic: I Was...Flyin' It
Z:Devin McCabe
K:D
dAA BAA|dAA BAF|dAA (ef2)|edB dBA|
!dAA BAA|def edB|gfe fed|1~B3 B2A:|2~B3 B2e|
!:fgg gfe|fed dBA|Bbb Baa|Bgg Bff|
!Bgg gfe|fed dBA|gfe fed|1~B3 B2e:|2~B3 B2A||

%  ABC2Win Version 2.1 8/25/2001
hornpipes/bobbycaseys.htmlhornpipes/bobbycaseys.htmlhornpipes/bobbycaseys.htmlhornpipes/bobbycaseys.htmlhornpipes/bobbycaseys.htmlhornpipes/bobbycaseys.htmlhornpipes/bobbycaseys.html